X:1
T:The Fight Is On
T:Lelia Naylor Morris, 1905
T:The Fight Is On
T:Public Domain
T:Public Domain
T:Public Domain
C:Lelia Naylor Morris, 1905
Z:Public Domain
%%score ( 1 2 ) ( 3 4 )
L:1/8
M:4/4
K:C
V:1 treble 
V:2 treble 
V:3 bass 
V:4 bass 
V:1
 [EG]/ | [Ec]2 [^Dc]2 [Ec]3 [EG]/ | [EA]>[EG] [EG]>[EG] [EA]>[EG] G>G | [Gd]2 [^Fd]2 [=Fd]3 [Ge]/ | %4
w: 1.~The|fight is on, the|trump- et sound is ring- ing out, The|arms!” is heard a-|
w: 2.~The|fight is on, a-|rouse, ye sol- diers brave and true! Je-|leads, and vic- tory|
w: 3.~The|Lord is lead- ing|on to cer- tain vic- to- ry; The|prom- ise spans the|
 [Gd]>[^Fc] [GB]>[FA] G3/2 z2 G/ | [Ge]2 [^Ge]2 [Ae]3 [Ae]/ | %6
w: far and near; The Lord of|march- ing on to|
w: will as- sure; Go buck- le|ar- mor God has|
w: east- ern sky; His glor- ious|ev- ery land shall|
 [Ae]>[Ad] [Af]>[Ae] [Ad]>[Ac] [FB]>[FA] | [EG]2 [^Dc]2 [Ec]3 [EG]/ | %8
w: vic- to- ry, The tri- umph of the|Christ will soon ap-|
w: giv- en you, And in His strength un-|to the end en-|
w: hon- ored be; The morn will break, the|dawn of peace is|
 [Ge]>[Fd] [Ec]>[FB] [Ec]3/2 ||"^Refrain" [EG]<[EA]"^Unison" [EB]/ | [Ec]2 [EB]2 [EA]2 [CE]2 | %11
w: pear. * * * *|||
w: dure. The fight is on,|O Christ- ian|sol- dier, And face|
w: nigh. * * * *|||
 [EG]4 G>G A>B | [Ec]2 [EB]2 [EA]2 [CE]2 | [B,DF]4- F>D F>G | [DFB]2 [DFB]2 z3/2 G/ B>c | %15
w: ||||
w: to face in stern ar-|ar- mor gleam- ing,|and * * col- ors|ing, The right and wrong|
w: ||||
 [FGd]2 ([FGd]2 z3/2) E/ E>F | [FB]2 [FA]2 [B,DF]2 [FA]2 | [EG]4 z3/2"^Harmony" [FG]/ [FA]>[FB] | %18
w: |||
w: gage to- day! The fight|on, but be not|wear- y; Be strong,|
w: |||
 [Ec]2 [EB]2 [EA]2 [CE]2 | [EG]4 [EG]>[FG] [FA]>[FB] | [Ec]2 [Ge]2 [Af]2 [Ge]2 | %21
w: |||
w: and in His might|hold fast; If God be|for us, His ban-|
w: |||
 [FA]4 z3/2 ^G/ A>B | [^Dc]2 [Dc]2 z3/2 B/ c>^d | [Ge]2 [Ge]2 z3/2 G/ G>G | %24
w: |||
w: ner o’er us, We’ll|sing the vic- tor’s song|at last! * * *|
w: |||
 [FA]2 [Af]2 [Ge]2 [Fd]2 | [Ec]6 z3/2 |] %26
w: ||
w: ||
w: ||
V:2
 x/ | x15/2 | x6 G>G | x15/2 | x4 G3/2 x/ G/ x3/2 | x15/2 | x8 | x15/2 | x11/2 || x5/2 | x8 | %11
w: ||cry “To||hosts is|||||||
w: ||ho- vah||on the|||||||
w: ||bow of||name in|||||||
 x4 E2 E2 | x8 | x4 [B,D]2 [B,D]2 | x6 F2 | x4 ([FG]2 B,2) | x8 | x8 | x8 | x8 | x8 | x8 | x8 | %23
w: ||||||||||||
w: ray, With||* stream-|en-|is *||||||||
w: ||||||||||||
 x11/2 G/ G>G | x8 | x15/2 |] %26
w: |||
w: |||
w: |||
V:3
 [C,C]/ | [C,G,]2 [C,A,]2 [C,G,]3 [C,C]/ | [C,C]>[C,C] [C,C]>[C,C] [C,C]>[C,C] [E,C]>[E,C] | %3
 [G,B,]2 [A,C]2 [B,D]3 C/ | [B,D]>[A,D] [G,D]>[D,C] ([G,B,]>F, E,>)[D,B,] | %5
 [C,C]2 [B,,B,D]2 [A,,A,C]3 [G,C]/ | [F,C]>[F,C] [F,C]>[F,C] [F,C]>[F,C] [F,C]>[F,C] | %7
 [G,C]2 [_A,C]2 [G,C]3 [G,C]/ | [G,C]>[G,B,] [G,C]>[G,D] [C,C]3/2 || z/ z2 | %10
 [C,G,]2 [G,,G,]2 [C,G,]2 [G,,G,]2 | [C,G,]2 [G,,G,]2 [C,G,]2 [G,,G,]2 | %12
 [C,G,]2 [G,,G,]2 [C,G,]2 [G,,G,]2 | ([D,G,]2 [G,,G,]2 [D,G,]2) [G,,G,]2 | %14
 [D,G,]2 [G,,G,]2 [D,G,]2 [G,,G,]2 | [B,,G,]2 ([G,,G,]2 [B,,G,]2) [G,,G,]2 | %16
 [D,G,]2 [G,,G,]2 [D,G,]2 [G,,G,]2 | ([C,G,]2 [G,,G,]2 [C,G,]>)[G,,G,] [G,,G,]>[G,,G,] | %18
 [C,G,]2 [C,G,]2 [C,G,]2 [C,G,]2 | (z3/2 E,/ G,>E,) [C,C]>[G,B,] [G,B,]>G, | %20
 [C,G,]2 [C,C]2 [C,C]2 [C,C]2 | (z3/2 A,/ C>A, F,2) z2 | [^F,A,]2 [F,A,]2 z4 | %23
 [G,C]2 [G,C]2 z3/2 [E,C]/ [E,C]>[E,C] | [F,C]2 [F,C]2 [G,C]2 [G,,B,]2 | [C,G,]6 z3/2 |] %26
V:4
 x/ | x15/2 | x8 | x7 C/ | x8 | x15/2 | x8 | x15/2 | x11/2 || x5/2 | x8 | x8 | x8 | x8 | x8 | x8 | %16
 x8 | x8 | x8 | ([C,C]4 x2 G,/) x3/2 | x8 | [F,C]4 x4 | x8 | x8 | x8 | x15/2 |] %26

